X:256
T: Wiedersehn an der Bahre (24a), S. 98
N: T0145
O: Luxemburg
S: Singendes Volk, Esch-Alzette 1937 posth.]
N: Vianden, fff Wedekind, 18.4.1916;
N: (24b)- Rodershausen, fff Elli Bindels 1930
R: Liebeslieder]
M: 3/4
L: 1/8
K: D
DDE | F3GEF | D2z
DFG | A3BGA | F3
Adc | B3AGB | A3
FDE | FAA2G2 | F3
Adc | B3AGB | A3
FDE | FAA2G2 | F3

@@@ Tune index: 8310
